!!!OTL: VON DIR MUSS ICH SCHEIDEN
!!!ARE: Europa, Mitteleuropa, Deutschland, Hessen, Nassau
!!!SCT: E0786
!!!YEM: Copyright 1995, estate of Helmut Schaffrath.
**kern
*ICvox
*Ivox
*M2/4
*k[b-e-]
*B-:
=1
{8f
8b-
8b-
8b-
=2
8b-
8dd
4dd}
=3
{8.cc
16b-
8a
8g
=4
4a
4r}
=5
{8.a
16b-
8cc
8dd
=6
4ee-
4a}
=7
{8.cc
16b-
8cc
8dd
=8
4b-
4r}
=9
{8f
8b-
8b-
8b-
=10
8b-
8dd
4dd}
=11
{8cc
8b-
8a
8g
=12
8a
8f
4f}
=13
{8.a
16b-
8cc
8dd
=14
2ee-}
=15
{8.dd
16cc
8cc
8dd
=16
4b-
4r}
==
!!!AGN: Abschieds -, Wander - Lied
!!!ONB: ESAC (Essen Associative Code) Database: ERK2
!!!AMT: simple duple
!!!AIN: vox
!!!EED: Helmut Schaffrath
!!!EEV: 1.0
*-
